assets/Razor/Flat/razor_flat.svg

<svg width="32" height="32" viewBox="0 0 32 32" fill="none" xmlns="http://www.w3.org/2000/svg">
<path d="M3.5275 29.3125L2.6375 28.4225C1.7875 27.5725 1.7875 26.2025 2.6375 25.3525L16.0875 11.9125L19 13.5L20.0375 15.8625L6.5975 29.3125C5.7475 30.1525 4.3775 30.1525 3.5275 29.3125Z" fill="#3F5FFF"/>
<path d="M23.7975 19.6225L12.3275 8.1525C11.4975 7.3225 11.4975 5.9825 12.3275 5.1525L14.8575 2.6225C15.6875 1.7925 17.0275 1.7925 17.8575 2.6225L29.3275 14.1025C30.1575 14.9325 30.1575 16.2725 29.3275 17.1025L26.7975 19.6325C25.9675 20.4525 24.6275 20.4525 23.7975 19.6225Z" fill="#5092FF"/>
<path d="M16.1675 4.57248L16.0475 4.69248C15.7575 4.99248 15.7575 5.47248 16.0475 5.76248L26.1875 15.8925C26.4775 16.1825 26.9575 16.1825 27.2475 15.8925L27.3675 15.7725C27.6575 15.4825 27.6575 15.0025 27.3675 14.7125L17.2275 4.57248C16.9375 4.28248 16.4575 4.28248 16.1675 4.57248Z" fill="#E6E6E6"/>
<path d="M14.3975 6.35251L14.2775 6.47251C13.9775 6.76251 13.9775 7.24251 14.2775 7.53251L24.4275 17.6725C24.7175 17.9625 25.1975 17.9625 25.4875 17.6725L25.6075 17.5525C25.8975 17.2625 25.8975 16.7825 25.6075 16.4925L15.4575 6.35251C15.1675 6.06251 14.6875 6.06251 14.3975 6.35251Z" fill="#E6E6E6"/>
<path d="M4.14753 27.8025C3.49753 27.1525 3.49753 26.0825 4.14753 25.4325L5.35753 24.2225C6.00753 23.5725 7.07753 23.5725 7.72753 24.2225C8.37753 24.8725 8.37753 25.9425 7.72753 26.5925L6.51753 27.8025C5.86753 28.4525 4.79753 28.4525 4.14753 27.8025Z" fill="#83CBFF"/>
</svg>

<svg xmlns="http://www.w3.org/2000/svg" width="32" height="32" fill="none"><path fill="#3F5FFF" d="m3.527 29.313-.89-.89c-.85-.85-.85-2.22 0-3.07l13.45-13.44L19 13.5l1.038 2.363-13.44 13.45c-.85.84-2.22.84-3.07 0Z"/><path fill="#5092FF" d="m23.797 19.622-11.47-11.47c-.83-.83-.83-2.17 0-3l2.53-2.53c.83-.83 2.17-.83 3 0l11.47 11.48c.83.83.83 2.17 0 3l-2.53 2.53c-.83.82-2.17.82-3-.01Z"/><path fill="#E6E6E6" d="m16.168 4.572-.12.12c-.29.3-.29.78 0 1.07l10.14 10.13c.29.29.77.29 1.06 0l.12-.12c.29-.29.29-.77 0-1.06l-10.14-10.14a.754.754 0 0 0-1.06 0ZM14.398 6.353l-.12.12c-.3.29-.3.77 0 1.06l10.15 10.14c.29.29.77.29 1.06 0l.12-.12c.29-.29.29-.77 0-1.06l-10.15-10.14a.754.754 0 0 0-1.06 0Z"/><path fill="#83CBFF" d="M4.148 27.802c-.65-.65-.65-1.72 0-2.37l1.21-1.21c.65-.65 1.72-.65 2.37 0 .65.65.65 1.72 0 2.37l-1.21 1.21c-.65.65-1.72.65-2.37 0Z"/></svg>
